X:3018
T:Christmas Eve
M:C|
L:1/8
C:Tommy Coen
R:reel
D:James Kelly and Zan McLeod: The Ring Sessions
Z:Devin McCabe
K:G
GE|:DB,DE G3A|B2dB ABGB|ABGE DB,DE|GABG ABGE|
!DB,DE G3A|BG G/2G/2G  ABGA|B2AB G~E3|1ABGE G2GE:|2ABGE G3A||
!BABd edeg|(3aba ge g2eg|abaf gfge|dgdB ABGA|
!BA (3Bcd edeg|(3aba ge g2eg|aege d2BG|ABGE GBAc|
!BGBd edeg|(3aba ge gbag|eaaf gbge|d~B3 ABcA|
!BA (3Bcd edeg|bage g2eg|abge d2BG|ABGE GBAc|
!:BG G/2G/2G DGBc|d~g3 egdc|B~G3 DGBG|EAAA DFAc|
!BGFG DGBc|d~g3 egdg|(3bag (3agf gedB|1ABGE ~G3A:|2ABGE G2GE||


